static/assets/img/icons/theme/communication/mail-opened.svg

<svg height="24" viewBox="0 0 24 24" width="24" xmlns="http://www.w3.org/2000/svg"><g fill="none" fill-rule="evenodd"><path d="m0 0h24v24h-24z" opacity="0"/><g fill="#000"><path d="m6 2h12c.5522847 0 1 .44771525 1 1v9c0 .5522847-.4477153 1-1 1h-12c-.55228475 0-1-.4477153-1-1v-9c0-.55228475.44771525-1 1-1zm1.5 3c-.27614237 0-.5.22385763-.5.5s.22385763.5.5.5h6c.2761424 0 .5-.22385763.5-.5s-.2238576-.5-.5-.5zm0 2c-.27614237 0-.5.22385763-.5.5s.22385763.5.5.5h3c.2761424 0 .5-.22385763.5-.5s-.2238576-.5-.5-.5z" opacity=".3"/><path d="m3.79274528 6.57253826 8.20725472 5.92746174 8.2072547-5.92746174c.2238629-.16167876.5364062-.11126855.6980849.11259433.0615383.08520692.0946604.18763969.0946604.29274528v10.02212213c0 1.1045695-.8954305 2-2 2h-14c-1.1045695 0-2-.8954305-2-2v-10.02212213c0-.27614238.22385763-.5.5-.5.10510559 0 .20753836.03312206.29274528.09466039z"/></g></g></svg>

<svg width="24px" height="24px" viewBox="0 0 24 24" version="1.1" xmlns="http://www.w3.org/2000/svg" xmlns:xlink="http://www.w3.org/1999/xlink">
    <title>Icon For Mail-opened</title>
    <g stroke="none" stroke-width="1" fill="none" fill-rule="evenodd">
        <rect opacity="0" x="0" y="0" width="24" height="24"></rect>
        <path d="M6,2 L18,2 C18.5522847,2 19,2.44771525 19,3 L19,12 C19,12.5522847 18.5522847,13 18,13 L6,13 C5.44771525,13 5,12.5522847 5,12 L5,3 C5,2.44771525 5.44771525,2 6,2 Z M7.5,5 C7.22385763,5 7,5.22385763 7,5.5 C7,5.77614237 7.22385763,6 7.5,6 L13.5,6 C13.7761424,6 14,5.77614237 14,5.5 C14,5.22385763 13.7761424,5 13.5,5 L7.5,5 Z M7.5,7 C7.22385763,7 7,7.22385763 7,7.5 C7,7.77614237 7.22385763,8 7.5,8 L10.5,8 C10.7761424,8 11,7.77614237 11,7.5 C11,7.22385763 10.7761424,7 10.5,7 L7.5,7 Z" fill="#000000" opacity="0.3"></path>
        <path d="M3.79274528,6.57253826 L12,12.5 L20.2072547,6.57253826 C20.4311176,6.4108595 20.7436609,6.46126971 20.9053396,6.68513259 C20.9668779,6.77033951 21,6.87277228 21,6.97787787 L21,17 C21,18.1045695 20.1045695,19 19,19 L5,19 C3.8954305,19 3,18.1045695 3,17 L3,6.97787787 C3,6.70173549 3.22385763,6.47787787 3.5,6.47787787 C3.60510559,6.47787787 3.70753836,6.51099993 3.79274528,6.57253826 Z" fill="#000000"></path>
    </g>
</svg>
